site/static/img/social/twitter-red.svg

<svg height="47" viewBox="0 0 47 47" width="47" xmlns="http://www.w3.org/2000/svg"><g fill="none" fill-rule="evenodd"><circle cx="23.5" cy="23.5" fill="#e9364b" r="23.5"/><path d="m8.49134363 22c10.19031757 0 15.76239687-8.4648696 15.76239687-15.80313743 0-.23994697-.0037466-.479673-.0165291-.71718957 1.0832088-.78325232 2.0222837-1.76425099 2.7627886-2.87604949-.9921885.44122846-2.0610721.73950508-3.1802042.87428193 1.1438156-.6882457 2.0200798-1.77618206 2.4363934-3.07202829-1.0693243.63477685-2.2567769 1.09942555-3.51828 1.34931507-1.0131253-1.0808661-2.4485148-1.75519222-4.0436858-1.75519222-3.0594314 0-5.5381395 2.48762704-5.5381395 5.55192223 0 .43592576.0487059.85815289.1419302 1.26844896-4.60347239-.23508617-8.68837088-2.44387981-11.41920322-5.80357932-.47449617.81970835-.74998163 1.77286787-.74998163 2.78965974 0 1.92664605.97676127 3.62704375 2.46636628 4.62395051-.90844087-.02872293-1.76442931-.27839151-2.50978279-.6955369-.00154272.02496686-.00154272.04706143-.00154272.07092356 0 2.69111802 1.9107672 4.93636762 4.44258883 5.44454262-.46215442.1263809-.95317972.1961998-1.4576487.1961998-.35769033 0-.70414085-.0371189-1.04199623-.1025188.70678551 2.2092355 2.75176923 3.8144056 5.17449862 3.8594785-1.8955604 1.4904994-4.28479076 2.3775962-6.88074541 2.3775962-.44584568 0-.88596126-.0260716-1.32056713-.0777729 2.4509391 1.57711 5.36226951 2.4966858 8.49134363 2.4966858" fill="#fff" transform="translate(10 12)"/></g></svg>

<?xml version="1.0" encoding="UTF-8"?>
<svg width="47px" height="47px" viewBox="0 0 47 47" version="1.1" xmlns="http://www.w3.org/2000/svg" xmlns:xlink="http://www.w3.org/1999/xlink">
    <!-- Generator: Sketch 61.1 (89650) - https://sketch.com -->
    <title>twitter</title>
    <desc>Created with Sketch.</desc>
    <g id="twitter" stroke="none" stroke-width="1" fill="none" fill-rule="evenodd">
        <circle id="Oval-Copy-5" fill="#E9364B" cx="23.5" cy="23.5" r="23.5"></circle>
        <g id="Group-3" transform="translate(10.000000, 12.000000)" fill="#FFFFFF">
            <path d="M8.49134363,22 C18.6816612,22 24.2537405,13.5351304 24.2537405,6.19686257 C24.2537405,5.9569156 24.2499939,5.71718957 24.2372114,5.479673 C25.3204202,4.69642068 26.2594951,3.71542201 27,2.60362351 C26.0078115,3.04485197 24.9389279,3.34312859 23.8197958,3.47790544 C24.9636114,2.78965974 25.8398756,1.70172338 26.2561892,0.405877154 C25.1868649,1.040654 23.9994123,1.5053027 22.7379092,1.75519222 C21.7247839,0.674326116 20.2893944,0 18.6942234,0 C15.634792,0 13.1560839,2.48762704 13.1560839,5.55192223 C13.1560839,5.98784799 13.2047898,6.41007512 13.2980141,6.82037119 C8.69454171,6.58528502 4.60964322,4.37649138 1.87881088,1.01679187 C1.40431471,1.83650022 1.12882925,2.78965974 1.12882925,3.80645161 C1.12882925,5.73309766 2.10559052,7.43349536 3.59519553,8.43040212 C2.68675466,8.40167919 1.83076622,8.15201061 1.08541274,7.73486522 C1.08387002,7.75983208 1.08387002,7.78192665 1.08387002,7.80578878 C1.08387002,10.4969068 2.99463722,12.7421564 5.52645885,13.2503314 C5.06430443,13.3767123 4.57327913,13.4465312 4.06881015,13.4465312 C3.71111982,13.4465312 3.3646693,13.4094123 3.02681392,13.3440124 C3.73359943,15.5532479 5.77858315,17.158418 8.20131254,17.2034909 C6.30575214,18.6939903 3.91652178,19.5810871 1.32056713,19.5810871 C0.874721454,19.5810871 0.434605872,19.5550155 0,19.5033142 C2.4509391,21.0804242 5.36226951,22 8.49134363,22" id="Fill-1"></path>
        </g>
    </g>
</svg>
